testfiles/vppcustom_v01.config.ocio
ocio_profile_version: 1

search_path: luts
strictparsing: true
luma: [0.2126, 0.7152, 0.0722]

roles:
  color_picking: Utility - sRGB - Texture
  data: Utility - Raw
  default: ACES - ACES2065-1
  matte_paint: Utility - sRGB - Texture
  reference: ACES - ACES2065-1
  scene_linear: ACES - ACEScg
  texture_paint: Utility - sRGB - Texture

displays:
  sRGB:
    - !<View> {name: UE, colorspace: Output - sRGB Monitor - UE Emulation}
    - !<View> {name: Monitor, colorspace: Output - sRGB Monitor}
  ACES:
    - !<View> {name: Raw, colorspace: Utility - Raw}
  LED Walls:
    - !<View> {name: PQ - Calibrated - P3-D65, colorspace: PQ - P3-D65, look: LED Walls Calibration}
    - !<View> {name: PQ - Default - P3-D65, colorspace: PQ - P3-D65}

active_displays: [sRGB, ACES, LED Walls]
active_views: [UE, Monitor, PQ - Calibrated - P3-D65, PQ - Default - P3-D65, Raw]

looks:
  - !<Look>
    name: LED Walls Calibration
    process_space: ACES - ACES2065-1
    description: |
      LED Walls color calibration matrix. Note that this calibration matrix is identity placeholder.
    transform: !<MatrixTransform> {matrix: [1,0,0,0, 0,1,0,0, 0,0,1,0, 0,0,0,1]}

colorspaces:
  - !<ColorSpace>
    name: ACES - ACES2065-1
    family: ACES
    equalitygroup: ""
    bitdepth: 32f
    description: |
      The Academy Color Encoding System reference color space
    isdata: false
    allocation: lg2
    allocationvars: [-8, 5, 0.00390625]

  - !<ColorSpace>
    name: ACES - ACEScg
    family: ACES
    equalitygroup: ""
    bitdepth: 32f
    description: |
      The ACEScg color space
      
      ACES Transform ID : ACEScsc.Academy.ACEScg_to_ACES
    isdata: false
    allocation: lg2
    allocationvars: [-8, 5, 0.00390625]
    to_reference: !<MatrixTransform> {matrix: [0.695452, 0.140679, 0.163869, 0, 0.0447946, 0.859671, 0.0955343, 0, -0.00552588, 0.00402521, 1.0015, 0, 0, 0, 0, 1]}

  - !<ColorSpace>
    name: Utility - Raw
    family: Utility
    equalitygroup: ""
    bitdepth: 32f
    description: |
      Raw data, used for vectors, points, normals, etc...
    isdata: true
    allocation: uniform
    allocationvars: [0, 1]

  - !<ColorSpace>
    name: Utility - Linear - sRGB
    family: Utility
    equalitygroup: ""
    bitdepth: 32f
    description: |
      "BT.709 / sRGB" colorspace primaries and "D65" whitepoint as per "IEC 61966-2-1:1999".
    isdata: false
    allocation: lg2
    allocationvars: [-8, 7, 0.00390625]
    from_reference: !<GroupTransform>
      children:
        - !<MatrixTransform> {matrix: [0.952552, 0, 9.36786e-05, 0, 0.343966, 0.728166, -0.0721325, 0, 0, 0, 1.00883, 0, 0, 0, 0, 1]}
        - !<MatrixTransform> {matrix: [3.2096, -1.55743, -0.495805, 0, -0.970989, 1.88517, 0.0394894, 0, 0.0597193, -0.210104, 1.14312, 0, 0, 0, 0, 1]}

  - !<ColorSpace>
    name: Utility - Curve - sRGB
    family: Utility
    equalitygroup: ""
    bitdepth: 32f
    description: |
      "sRGB" colorspace color component transfer function as per "IEC 61966-2-1:1999".
    isdata: false
    allocation: uniform
    allocationvars: [0, 1]
    to_reference: !<GroupTransform>
      children:
        - !<ColorSpaceTransform> {src: Utility - Linear - sRGB, dst: ACES - ACES2065-1}
        - !<FileTransform> {src: eotf_sRGB.spi1d, interpolation: linear}

  - !<ColorSpace>
    name: Utility - sRGB - Texture
    family: Utility
    equalitygroup: ""
    bitdepth: 32f
    description: |
      "BT.709 / sRGB" colorspace primaries, "D65" whitepoint and color component transfer function as per "IEC 61966-2-1:1999".
    isdata: false
    allocation: lg2
    allocationvars: [-8, 7, 0.00390625]
    from_reference: !<GroupTransform>
      children:
        - !<ColorSpaceTransform>{src: ACES - ACES2065-1, dst: Utility - Linear - sRGB}
        - !<ColorSpaceTransform> {src: Utility - Linear - sRGB, dst: Utility - Curve - sRGB}


  - !<ColorSpace>
    name: Utility - Curve - PQ
    family: Utility
    equalitygroup: ""
    bitdepth: 32f
    description: |
      "PQ" color component transfer function as per "SMPTE ST 2084". Assumes scene value of 1.0 corresponds to 100nits.
    isdata: false
    allocation: uniform
    allocationvars: [0, 1]
    to_reference: !<GroupTransform>
      children:
        - !<FileTransform> {src: Dolby_PQ_10000_to_linear.spi1d, interpolation: linear}
        - !<CDLTransform> {slope: [100, 100, 100], direction: inverse}

  - !<ColorSpace>
    name: Output - sRGB Monitor - UE Emulation
    family: Output
    equalitygroup: ""
    bitdepth: 32f
    description: |
      View for a generic "sRGB Monitor" display assuming input "BT.709 / sRGB" colorspace primaries, "D65" whitepoint, with a LUT that emulates the look of Unreal Engine tonemapper (including Expand Gamut and Tone Curve)
    isdata: false
    allocation: uniform
    allocationvars: [0, 1]
    from_reference: !<GroupTransform>
      children:
        - !<ColorSpaceTransform> {src: ACES - ACES2065-1, dst: Utility - Linear - sRGB}
        - !<ColorSpaceTransform> {src: Utility - Linear - sRGB, dst: Utility - Curve - PQ}
        - !<FileTransform> {src: UE_PQtoEGTC.cube, interpolation: linear}

  - !<ColorSpace>
    name: Output - sRGB Monitor
    family: Output
    equalitygroup: ""
    bitdepth: 32f
    description: |
      View for a generic "sRGB Monitor" display assuming input "BT.709 / sRGB" colorspace primaries, "D65" whitepoint and color component transfer function as per "IEC 61966-2-1:1999".
    isdata: false
    allocation: uniform
    allocationvars: [0, 1]
    to_reference: !<ColorSpaceTransform> {src: Utility - Curve - sRGB, dst: ACES - ACES2065-1}

  - !<ColorSpace>
    name: Output - LED Walls - PQ
    family: Output
    equalitygroup: ""
    bitdepth: 32f
    description: |
      View for reference color space content on LED Walls assuming PQ "ST 2084" HDR color component transfer function. Assumes scene value 1.0 corresponds to 100 nits.
    isdata: false
    allocation: uniform
    allocationvars: [0, 1]
    from_reference: !<GroupTransform>
      children:
        - !<ColorSpaceTransform> {src: ACES - ACES2065-1, dst: Utility - Curve - PQ}

  - !<ColorSpace>
    name: PQ - P3-D65
    family: Utility
    equalitygroup: ""
    bitdepth: 32f
    description: |
      "PQ" color component transfer function as per "SMPTE ST 2084". Assumes scene value of 1.0 corresponds to 100nits.
    isdata: false
    allocation: uniform
    allocationvars: [0, 1]
    from_reference: !<GroupTransform>
      children:
        - !<MatrixTransform> {matrix: [2.02490528596679, -0.689069761034766, -0.335835524932019, 0, -0.183597032256178, 1.28950620775902, -0.105909175502841, 0, 0.00905856112234766, -0.0592796840575522, 1.0502211229352, 0, 0, 0, 0, 1]}
        - !<CDLTransform> {slope: [100, 100, 100]}
        - !<FileTransform> {src: Dolby_PQ_10000_to_linear.spi1d, interpolation: linear, direction: inverse}
